X:77
T:Liverpool Hornpipe,aka. RH.077
R:.hornpipe
S:Rev.R.Harrison’s MS,c1815,Cumbria
O:England
A:Temple Sowerby,Cumbria
Z:vmp.Simon Wilson. Review PJH, 2008.
M:C|
L:1/8
Q:1/2=95
K:D
FDFA dfaf|gefd dcBA|GBGB FAFA|EFGA GFED|!
FDFA dfaf|gefd dcBA|f2fg afdf|gedc d2z2:|!
|:dffd ceec|BddB BAGF|GBGB FAFA|EFGA GFED|!
FDFA dfaf|gefd dcBA|f2fg afdf|gedc d2″ G in MS”D2:|
W:This hornpipe is “A Hornpipe” in the MS.

